X: 1
T: the Flowers of Edinburgh #2
R: reel
Z: John Chambers <jc:trillian.mit.edu>
B: Oswald "Curious Collection of Scots Tunes (II)" c.1742
M: C|
L: 1/8
K: G
D2 \
|: "G"G2DG B2GB | d2B2 "(C)"g3e \
| "G"d2B2 BAGA |1,3 B2G2 "D7"E2D2 :|2,4 "G"B2G2 G4 :|
|: "Em"g4 f3e | B2e2 e3f \
| gbag "D"fagf | "Em"B2e2 e3e \
| "G"dBGB d2d2 | "C"edef g3e \
| "G"d2B2 BAGA |"D7"B2G2 G4 :|
